library/css/icons/svgs/fi-die-six.svg

<svg xmlns="http://www.w3.org/2000/svg" width="100" height="100" viewBox="0 0 100 100"><path d="M83.921 23.292c-.092-3.956-3.264-7.145-7.213-7.264v-.011h-53.416v.008c-3.974.092-7.174 3.293-7.267 7.267h-.009v53.416h.009c.091 3.974 3.292 7.175 7.267 7.267v.008h53.416v-.009c3.975-.092 7.176-3.292 7.267-7.267h.009v-53.415h-.063zm-50.931 50.384c-3.885 0-7.034-3.148-7.034-7.034 0-3.885 3.149-7.035 7.034-7.035s7.035 3.15 7.035 7.035c0 3.885-3.15 7.034-7.035 7.034zm0-16.641c-3.885 0-7.034-3.148-7.034-7.034 0-3.885 3.149-7.035 7.034-7.035s7.035 3.15 7.035 7.035c0 3.885-3.15 7.034-7.035 7.034zm0-16.965c-3.885 0-7.034-3.148-7.034-7.034 0-3.885 3.149-7.035 7.034-7.035s7.035 3.15 7.035 7.035c0 3.885-3.15 7.034-7.035 7.034zm34.019 33.909c-3.885 0-7.034-3.148-7.034-7.033 0-3.887 3.149-7.036 7.034-7.036s7.035 3.149 7.035 7.036c0 3.884-3.15 7.033-7.035 7.033zm.001-16.944c-3.885 0-7.034-3.148-7.034-7.034 0-3.885 3.149-7.035 7.034-7.035s7.035 3.15 7.035 7.035c-.001 3.885-3.15 7.034-7.035 7.034zm-.001-16.965c-3.885 0-7.034-3.148-7.034-7.033 0-3.887 3.149-7.036 7.034-7.036s7.035 3.149 7.035 7.036c0 3.884-3.15 7.033-7.035 7.033z"/></svg>

<?xml version="1.0" encoding="utf-8"?>
<!-- Generator: Adobe Illustrator 17.0.0, SVG Export Plug-In . SVG Version: 6.00 Build 0)  -->
<!DOCTYPE svg PUBLIC "-//W3C//DTD SVG 1.1//EN" "http://www.w3.org/Graphics/SVG/1.1/DTD/svg11.dtd">
<svg version="1.1" id="Layer_1" xmlns="http://www.w3.org/2000/svg" xmlns:xlink="http://www.w3.org/1999/xlink" x="0px" y="0px"
	 width="100px" height="100px" viewBox="0 0 100 100" enable-background="new 0 0 100 100" xml:space="preserve">
<g>
	<path d="M83.921,23.292c-0.092-3.956-3.264-7.145-7.213-7.264v-0.011H23.292v0.008c-3.974,0.092-7.174,3.293-7.267,7.267h-0.009
		v53.416h0.009c0.091,3.974,3.292,7.175,7.267,7.267v0.008h53.416v-0.009c3.975-0.092,7.176-3.292,7.267-7.267h0.009V23.292H83.921z
		 M32.99,73.676c-3.885,0-7.034-3.148-7.034-7.034c0-3.885,3.149-7.035,7.034-7.035c3.885,0,7.035,3.15,7.035,7.035
		C40.025,70.527,36.875,73.676,32.99,73.676z M32.99,57.035c-3.885,0-7.034-3.148-7.034-7.034c0-3.885,3.149-7.035,7.034-7.035
		c3.885,0,7.035,3.15,7.035,7.035C40.025,53.886,36.875,57.035,32.99,57.035z M32.99,40.07c-3.885,0-7.034-3.148-7.034-7.034
		c0-3.885,3.149-7.035,7.034-7.035c3.885,0,7.035,3.15,7.035,7.035C40.025,36.921,36.875,40.07,32.99,40.07z M67.009,73.979
		c-3.885,0-7.034-3.148-7.034-7.033c0-3.887,3.149-7.036,7.034-7.036c3.885,0,7.035,3.149,7.035,7.036
		C74.044,70.83,70.894,73.979,67.009,73.979z M67.01,57.035c-3.885,0-7.034-3.148-7.034-7.034c0-3.885,3.149-7.035,7.034-7.035
		c3.885,0,7.035,3.15,7.035,7.035C74.044,53.886,70.895,57.035,67.01,57.035z M67.009,40.07c-3.885,0-7.034-3.148-7.034-7.033
		c0-3.887,3.149-7.036,7.034-7.036c3.885,0,7.035,3.149,7.035,7.036C74.044,36.921,70.894,40.07,67.009,40.07z"/>
</g>
</svg>
